X:87
T:Speed the Plough
R:reel
M:4/4
L:1/8
S:Found on Internet, similar to Jay Ungar's "Farmer Set" version
K:A
E2 | ABcd efec | efec eaec | dfdB cecA | BdBA GEFG |
ABcd efec | efec eaec | dfdB cecA | BdBG A2 ::
(3efg | a2ag aece | aAgA fAeA | dfdB cecA | BdBA Gefg |
a2ag aece | aAgA fAeA | dfdB cecA | BdBG A2 :|
